src/extras-openmoji/ui-element/E25C.svg

<svg id="emoji" viewBox="0 0 72 72" xmlns="http://www.w3.org/2000/svg">
  <g id="grid">
    <path fill="#b3b3b3" d="M68,4V68H4V4H68m4-4H0V72H72V0Z"/>
    <path fill="none" stroke="#00a5ff" stroke-miterlimit="10" stroke-width="0.1" d="M12.923,10.9583H59.0769A1.9231,1.9231,0,0,1,61,12.8814V59.0352a1.9231,1.9231,0,0,1-1.9231,1.9231H12.9231A1.9231,1.9231,0,0,1,11,59.0352V12.8813A1.923,1.923,0,0,1,12.923,10.9583Z"/>
    <rect x="16" y="4" rx="2.2537" width="40" height="64" fill="none" stroke="#00a5ff" stroke-miterlimit="10" stroke-width="0.1"/>
    <rect x="16" y="4" rx="2.2537" width="40" height="64" transform="translate(72) rotate(90)" fill="none" stroke="#00a5ff" stroke-miterlimit="10" stroke-width="0.1"/>
    <circle cx="36" cy="36" r="29" fill="none" stroke="#00a5ff" stroke-miterlimit="10" stroke-width="0.1"/>
  </g>
  <g id="color">
    <path fill="#D0CFCE" stroke="none" d="M58.2314,54.8086H14.1252c-0.8922,0-1.6222-0.73-1.6222-1.6222V43.1805c0-0.8922,0.73-1.6222,1.6222-1.6222 h44.1062c0.8922,0,1.6222,0.73,1.6222,1.6222v10.0059C59.8536,54.0786,59.1236,54.8086,58.2314,54.8086z"/>
    <circle cx="19.0173" cy="48.2886" r="1.9337" fill="#92D3F5" stroke="none"/>
  </g>
  <g id="hair"/>
  <g id="skin"/>
  <g id="skin-shadow"/>
  <g id="line">
    <line x1="36.0851" x2="36.0851" y1="17.1466" y2="36.0165" fill="none" stroke="#000000" stroke-linecap="round" stroke-linejoin="round" stroke-miterlimit="10" stroke-width="2"/>
    <line x1="42.24" x2="36.1" y1="29.8951" y2="36.0351" fill="none" stroke="#000000" stroke-linecap="round" stroke-linejoin="round" stroke-miterlimit="10" stroke-width="2"/>
    <line x1="29.91" x2="36.05" y1="29.8951" y2="36.0351" fill="none" stroke="#000000" stroke-linecap="round" stroke-linejoin="round" stroke-miterlimit="10" stroke-width="2"/>
    <path fill="none" stroke="#000000" stroke-linecap="round" stroke-linejoin="round" stroke-miterlimit="10" stroke-width="2" d="M56.8961,54.9782H15.0768c-1.65,0-3-1.35-3-3V44.402c0-1.65,1.35-3,3-3h41.8194c1.65,0,3,1.35,3,3v7.5762 C59.8961,53.6282,58.5461,54.9782,56.8961,54.9782z"/>
    <circle cx="19.0173" cy="48.2886" r="2" fill="none" stroke="#000000" stroke-linecap="round" stroke-linejoin="round" stroke-miterlimit="10" stroke-width="2"/>
  </g>
</svg>

<svg viewBox="0 0 72 72" xmlns="http://www.w3.org/2000/svg"><path fill="#b3b3b3" d="M68 4v64H4V4h64m4-4H0v72h72V0z"/><path fill="none" stroke="#00a5ff" stroke-miterlimit="10" stroke-width=".1" d="M12.923 10.958h46.154A1.923 1.923 0 0161 12.881v46.154a1.923 1.923 0 01-1.923 1.923H12.923A1.923 1.923 0 0111 59.035V12.881a1.923 1.923 0 011.923-1.923z"/><rect x="16" y="4" rx="2.254" width="40" height="64" fill="none" stroke="#00a5ff" stroke-miterlimit="10" stroke-width=".1"/><rect x="16" y="4" rx="2.254" width="40" height="64" transform="rotate(90 36 36)" fill="none" stroke="#00a5ff" stroke-miterlimit="10" stroke-width=".1"/><circle cx="36" cy="36" r="29" fill="none" stroke="#00a5ff" stroke-miterlimit="10" stroke-width=".1"/><g stroke-linecap="round" stroke-miterlimit="10" stroke-width="6" stroke="#fff" fill="none" stroke-linejoin="round"><path d="M36.085 17.147v18.87m6.155-6.122l-6.14 6.14m-6.19-6.14l6.14 6.14m20.846 18.943h-41.82c-1.65 0-3-1.35-3-3v-7.576c0-1.65 1.35-3 3-3h41.82c1.65 0 3 1.35 3 3v7.576c0 1.65-1.35 3-3 3z"/><circle cx="19.017" cy="48.289" r="2"/></g><path fill="#D0CFCE" d="M58.231 54.809H14.125c-.892 0-1.622-.73-1.622-1.623V43.181c0-.893.73-1.623 1.622-1.623h44.106c.893 0 1.623.73 1.623 1.623v10.005c0 .893-.73 1.623-1.623 1.623z"/><circle cx="19.017" cy="48.289" r="1.934" fill="#92D3F5"/><g fill="none" stroke="#000" stroke-linecap="round" stroke-linejoin="round" stroke-miterlimit="10" stroke-width="2"><path d="M36.085 17.147v18.87m6.155-6.122l-6.14 6.14m-6.19-6.14l6.14 6.14m20.846 18.943h-41.82c-1.65 0-3-1.35-3-3v-7.576c0-1.65 1.35-3 3-3h41.82c1.65 0 3 1.35 3 3v7.576c0 1.65-1.35 3-3 3z"/><circle cx="19.017" cy="48.289" r="2"/></g></svg>
